icons/surgical-mask.svg

<svg width="24" height="24" viewBox="0 0 24 24" fill="none" xmlns="http://www.w3.org/2000/svg">
<path d="M4 6L12 4L20 6V15C20 15 18.017 17.031 16.5 18C14.88 19.035 12 20 12 20C12 20 9.12 19.035 7.5 18C5.983 17.031 4 15 4 15V6Z" stroke="white" stroke-width="2" stroke-linecap="round" stroke-linejoin="round"/>
<path d="M20 14H21C21.5304 14 22.0391 13.7893 22.4142 13.4142C22.7893 13.0391 23 12.5304 23 12V8H20" stroke="white" stroke-width="2" stroke-linecap="round" stroke-linejoin="round"/>
<path d="M4 14H3C2.46957 14 1.96086 13.7893 1.58579 13.4142C1.21071 13.0391 1 12.5304 1 12V8H4" stroke="white" stroke-width="2" stroke-linecap="round" stroke-linejoin="round"/>
</svg>

<svg
  width="24"
  height="24"
  viewBox="0 0 24 24"
  xmlns="http://www.w3.org/2000/svg"
  fill="none"
  stroke="currentColor"
  stroke-width="2"
  stroke-linecap="round"
  stroke-linejoin="round"
>
  <path d="M4 6l8-2 8 2v9s-1.983 2.031-3.5 3c-1.62 1.035-4.5 2-4.5 2s-2.88-.965-4.5-2C5.983 17.031 4 15 4 15V6z" />
  <path d="M20 14h1a2 2 0 0 0 2-2V8h-3" />
  <path d="M4 14H3a2 2 0 0 1-2-2V8h3" />
</svg>
